app/dist/common/images/helbor.svg

<svg height="18" width="18" xmlns="http://www.w3.org/2000/svg"><path d="m0 0h18v18h-18z" fill="#1c4264"/><circle cx="9" cy="9" fill="#fff" r="5"/><path d="m4.63 11.5h8.75l-4.38-7.5zm6.56-.5v-2.71l-1.56-2.44v1.65l-1.25.72v-2.37l-1.58 2.45v2.7h1.57v-1.5l1.25-.72v2.22h1.56z" fill="#1c4264" fill-rule="evenodd"/></svg>

<!-- by TradingView --><svg xmlns="http://www.w3.org/2000/svg" width="18" height="18"><path fill="#1C4264" d="M0 0h18v18H0z"/><circle cx="9" cy="9" r="5" fill="#fff"/><path fill-rule="evenodd" d="M4.63 11.5h8.75L9 4l-4.37 7.5zm6.56-.5V8.29L9.63 5.85V7.5l-1.25.72V5.85L6.8 8.3V11h1.57V9.5l1.25-.72V11h1.56z" fill="#1C4264"/></svg>
